X: 08
T: KATHLEEN'S REEL
C: Andrew Rankine
R: reel, march
B: "The Complete Andrew Rankine Collection of Scottish Country Dance Tunes" p.11
Z: 2017 John Chambers <jc:trillian.mit.edu>
M: 2/4
L: 1/8
K: G
|:\
"G"GB Bd | "D7"d2 A>B | c2 Bd | A2 "G"G2 |\
"Em"Be e^d | "C"e2 g2 | "D7"d>c BA | "G"BG [1 "D7"d/c/B/A/ :|
[2 "B7"B/A/G/F/ \
|: "Em"Ee e^d | e2 "A7"EF/E/ | "D"Dd d^c | d2 "Bm"DG/F/ | "Em"Ee e^d |\
"C"e2 "C#dim"g2 | "D7"d>c BA |[1 "G"BG "B7"B/A/G/F/ :|[2 "G"BG G2 |]

%%sep 1 1 500

